assets/img/лого.svg

<svg width="201" height="58" viewBox="0 0 201 58" fill="none" xmlns="http://www.w3.org/2000/svg">
<path d="M109.831 0.70874H0V57.1345H109.831V0.70874Z" fill="#E51F1F"/>
<path d="M12.3124 13.431H25.5401C32.4912 13.431 36.5597 17.2441 36.5597 23.0935C36.5597 28.0765 33.6356 31.0658 29.4824 32.2769L37.4932 43.7601H31.3468L23.9713 33.1873H17.528V43.7601H12.3124V13.431ZM25.156 28.4705C28.8861 28.4705 31.2595 26.4741 31.2595 23.3131C31.2595 20.0644 28.9707 18.2876 25.1131 18.2876H17.528V28.4705H25.156Z" fill="white"/>
<path d="M40.7154 32.3236C40.7154 25.7794 45.2514 20.4065 51.6517 20.4065C58.7721 20.4065 62.3758 26.1295 62.3758 32.7122C62.3758 33.0596 62.3329 33.926 62.2912 34.1855H45.8451C46.3958 37.9121 48.9814 39.9924 52.2871 39.9924C54.7881 39.9924 56.5692 39.0394 58.3489 37.2626L61.3577 39.9924C59.2381 42.593 56.314 44.2819 52.2024 44.2819C45.7175 44.2819 40.7154 39.4733 40.7154 32.3236ZM57.2891 30.7198C56.9493 27.3393 55.0003 24.6961 51.6088 24.6961C48.4724 24.6961 46.2708 27.1663 45.8021 30.7198H57.2891Z" fill="white"/>
<path d="M81.2389 43.7627V40.9451C79.713 42.8084 77.3812 44.2392 73.9909 44.2392C69.7518 44.2392 66.0218 41.769 66.0218 37.0895C66.0218 32.02 69.8794 29.5924 75.0924 29.5924C77.8056 29.5924 79.5437 29.9823 81.2818 30.5453V30.1128C81.2818 26.9505 79.3289 25.2163 75.7707 25.2163C73.271 25.2163 71.4053 25.7793 69.3704 26.647L67.9721 22.4453C70.4301 21.3193 72.8465 20.5394 76.492 20.5394C83.1045 20.5394 86.3255 24.093 86.3255 30.2019V43.7654L81.2389 43.7627ZM81.3691 34.1801C80.0541 33.661 78.2327 33.271 76.2394 33.271C73.0184 33.271 71.111 34.6139 71.111 36.9098C71.111 39.0765 73.0184 40.2903 75.4348 40.2903C78.8199 40.2903 81.3691 38.3405 81.3691 35.4804V34.1801Z" fill="white"/>
<path d="M92.7256 12.1306H97.85V43.7626H92.7204L92.7256 12.1306Z" fill="white"/>
<path d="M133.76 14.4491H123.417V12.3689H146.307V14.4491H135.964V42.7006H133.76V14.4491Z" fill="white"/>
<path d="M145.037 36.2005C145.037 31.6075 148.894 29.0135 154.489 29.0135C156.907 28.9893 159.317 29.31 161.649 29.9664V29.0135C161.649 24.5496 158.979 22.2537 154.529 22.2537C151.9 22.2537 149.739 22.9897 147.747 24.0305L146.984 22.1672C149.358 21.0399 151.689 20.26 154.655 20.26C157.581 20.26 159.912 21.0839 161.48 22.6876C162.921 24.1596 163.684 26.1973 163.684 28.927V42.706H161.649V39.022C160.166 41.1515 157.496 43.2264 153.385 43.2264C149.36 43.2211 145.037 40.88 145.037 36.2005ZM161.701 34.4237V31.9109C159.309 31.2562 156.844 30.9211 154.368 30.914C149.79 30.914 147.247 32.9943 147.247 36.1579C147.247 39.3641 150.214 41.2274 153.52 41.2274C157.922 41.2274 161.695 38.4537 161.695 34.4237H161.701Z" fill="white"/>
<path d="M171.445 11.0687H173.528V42.7007H171.445V11.0687Z" fill="white"/>
<path d="M181.702 11.0687H183.785V34.7711L197.179 20.6021H199.934L190.482 30.395L200.231 42.7007H197.602L189.041 31.911L183.785 37.3278V42.7007H181.702V11.0687Z" fill="white"/>
</svg>

<svg width="201" height="58" fill="none" xmlns="http://www.w3.org/2000/svg"><path d="M109.831.709H0v56.426h109.831V.709z" fill="#E51F1F"/><path d="M12.312 13.431H25.54c6.951 0 11.02 3.813 11.02 9.662 0 4.983-2.924 7.973-7.078 9.184l8.011 11.483h-6.146L23.97 33.187h-6.443V43.76h-5.216V13.431zm12.844 15.04c3.73 0 6.104-1.997 6.104-5.158 0-3.249-2.29-5.025-6.147-5.025h-7.585V28.47h7.628zm15.559 3.853c0-6.545 4.536-11.917 10.937-11.917 7.12 0 10.724 5.723 10.724 12.305 0 .348-.043 1.214-.085 1.473H45.845c.55 3.727 3.136 5.807 6.442 5.807 2.501 0 4.282-.953 6.062-2.73l3.009 2.73c-2.12 2.601-5.044 4.29-9.156 4.29-6.484 0-11.487-4.809-11.487-11.958zM57.29 30.72c-.34-3.38-2.289-6.024-5.68-6.024-3.137 0-5.338 2.47-5.807 6.024H57.29zm23.949 13.043v-2.818c-1.526 1.863-3.858 3.294-7.248 3.294-4.24 0-7.97-2.47-7.97-7.15 0-5.069 3.858-7.497 9.071-7.497 2.714 0 4.452.39 6.19.953v-.432c0-3.162-1.953-4.897-5.511-4.897-2.5 0-4.366.563-6.4 1.431l-1.399-4.202c2.458-1.126 4.875-1.906 8.52-1.906 6.612 0 9.834 3.554 9.834 9.663v13.563l-5.087-.002zm.13-9.583c-1.315-.519-3.136-.909-5.13-.909-3.22 0-5.128 1.343-5.128 3.639 0 2.167 1.907 3.38 4.324 3.38 3.385 0 5.934-1.95 5.934-4.81v-1.3zm11.357-22.05h5.124v31.633h-5.13l.006-31.632zm41.034 2.32h-10.343v-2.081h22.89v2.08h-10.343v28.252h-2.204V14.449zm11.277 21.75c0-4.593 3.857-7.187 9.452-7.187a25.48 25.48 0 017.16.953v-.953c0-4.463-2.67-6.76-7.12-6.76-2.629 0-4.79.737-6.782 1.777l-.763-1.863c2.374-1.127 4.705-1.907 7.671-1.907 2.926 0 5.257.824 6.825 2.428 1.441 1.472 2.204 3.51 2.204 6.239v13.779h-2.035v-3.684c-1.483 2.13-4.153 4.204-8.264 4.204-4.025-.005-8.348-2.346-8.348-7.026zm16.664-1.776V31.91a28.078 28.078 0 00-7.333-.997c-4.578 0-7.121 2.08-7.121 5.244 0 3.206 2.967 5.07 6.273 5.07 4.402 0 8.175-2.774 8.175-6.804h.006zm9.744-23.355h2.083V42.7h-2.083V11.069zm10.257 0h2.083V34.77l13.394-14.169h2.755l-9.452 9.793 9.749 12.306h-2.629l-8.561-10.79-5.256 5.417V42.7h-2.083V11.069z" fill="#fff"/></svg>
